src/assets/img/logo.svg

<svg width="90" height="15" viewBox="0 0 90 15" fill="none" xmlns="http://www.w3.org/2000/svg">
  <path d="M0 4.28571C0 1.91878 1.91878 0 4.28571 0H10.7143C13.0812 0 15 1.91878 15 4.28571V10.7143C15 13.0812 13.0812 15 10.7143 15H4.28571C1.91878 15 0 13.0812 0 10.7143V4.28571Z" fill="#7A7ED0" />
  <path d="M3.47656 6.21989C3.47656 5.64459 3.9451 5.17822 4.52307 5.17822C5.10105 5.17822 5.56959 5.64459 5.56959 6.21989V11.4282C4.41364 11.4282 3.47656 10.4955 3.47656 9.34489V6.21989Z" fill="white" />
  <path d="M9.40698 8.57143C9.40698 7.97969 9.87552 7.5 10.4535 7.5C11.0315 7.5 11.5 7.97969 11.5 8.57143L9.40698 8.57143Z" fill="white" />
  <path d="M9.40698 11.4284C10.5629 11.4284 11.5 10.4957 11.5 9.34511V8.57129H9.40698V9.34511V11.4284Z" fill="white" />
  <path d="M6.44531 4.61842C6.44531 4.03984 6.91385 3.5708 7.49182 3.5708C8.0698 3.5708 8.53834 4.03984 8.53834 4.61842V11.4279H6.44531V4.61842Z" fill="white" />
  <path d="M21.1 6.1V5H26.85V6.1H24.55V12H23.4V6.1H21.1ZM28.1969 11.34C27.6969 10.8267 27.4469 10.1967 27.4469 9.45C27.4469 8.70333 27.6969 8.07667 28.1969 7.57C28.7035 7.05667 29.3202 6.8 30.0469 6.8C30.7735 6.8 31.3869 7.05667 31.8869 7.57C32.3935 8.07667 32.6469 8.70333 32.6469 9.45V9.8H28.4969C28.5769 10.22 28.7602 10.55 29.0469 10.79C29.3335 11.03 29.6669 11.15 30.0469 11.15C30.5135 11.15 30.8869 11.0333 31.1669 10.8C31.2935 10.7067 31.4035 10.59 31.4969 10.45H32.5969C32.4569 10.7767 32.2802 11.0533 32.0669 11.28C31.5202 11.8267 30.8469 12.1 30.0469 12.1C29.3202 12.1 28.7035 11.8467 28.1969 11.34ZM28.5469 8.95H31.5469C31.4869 8.61667 31.3269 8.33333 31.0669 8.1C30.8135 7.86667 30.4735 7.75 30.0469 7.75C29.6869 7.75 29.3669 7.86 29.0869 8.08C28.8069 8.29333 28.6269 8.58333 28.5469 8.95ZM33.5977 12L34.9977 6.9H37.2477L38.6477 12H37.5477L36.4477 7.85H35.7977L34.6977 12H33.5977ZM40.3441 11.34C39.8441 10.8267 39.5941 10.1967 39.5941 9.45C39.5941 8.70333 39.8441 8.07667 40.3441 7.57C40.8508 7.05667 41.4675 6.8 42.1941 6.8C42.9208 6.8 43.5341 7.05667 44.0341 7.57C44.5408 8.07667 44.7941 8.70333 44.7941 9.45V9.8H40.6441C40.7241 10.22 40.9075 10.55 41.1941 10.79C41.4808 11.03 41.8141 11.15 42.1941 11.15C42.6608 11.15 43.0341 11.0333 43.3141 10.8C43.4408 10.7067 43.5508 10.59 43.6441 10.45H44.7441C44.6041 10.7767 44.4275 11.0533 44.2141 11.28C43.6675 11.8267 42.9941 12.1 42.1941 12.1C41.4675 12.1 40.8508 11.8467 40.3441 11.34ZM40.6941 8.95H43.6941C43.6341 8.61667 43.4741 8.33333 43.2141 8.1C42.9608 7.86667 42.6208 7.75 42.1941 7.75C41.8341 7.75 41.5141 7.86 41.2341 8.08C40.9541 8.29333 40.7741 8.58333 40.6941 8.95ZM46.2949 12V6.9H47.3449V8.9H48.0949L49.6449 6.9H50.8449L48.9949 9.25L50.9949 12H49.6949L48.1449 9.85H47.3449V12H46.2949ZM52.4623 11.34C51.9557 10.8267 51.7023 10.1967 51.7023 9.45C51.7023 8.70333 51.9557 8.07667 52.4623 7.57C52.9757 7.05667 53.6057 6.8 54.3523 6.8C55.099 6.8 55.7257 7.05667 56.2323 7.57C56.7457 8.07667 57.0023 8.70333 57.0023 9.45C57.0023 10.1967 56.7457 10.8267 56.2323 11.34C55.7257 11.8467 55.099 12.1 54.3523 12.1C53.6057 12.1 52.9757 11.8467 52.4623 11.34ZM53.2323 8.22C52.9457 8.52667 52.8023 8.93667 52.8023 9.45C52.8023 9.96333 52.9457 10.3767 53.2323 10.69C53.519 10.9967 53.8923 11.15 54.3523 11.15C54.8123 11.15 55.1857 10.9967 55.4723 10.69C55.759 10.3767 55.9023 9.96333 55.9023 9.45C55.9023 8.93667 55.759 8.52667 55.4723 8.22C55.1857 7.90667 54.8123 7.75 54.3523 7.75C53.8923 7.75 53.519 7.90667 53.2323 8.22ZM58.5008 12V6.9H60.0008L61.3508 9.95H61.5508L62.9008 6.9H64.4008V12H63.3508V8.4L63.3608 8.3H63.3108L62.0508 11.1H60.8508L59.5908 8.3H59.5408L59.5508 8.4V12H58.5008ZM68.6051 6.1V5H74.3551V6.1H72.0551V12H70.9051V6.1H68.6051ZM75.6523 12V6.9H76.7023V10.3L76.6923 10.4H76.7923L79.1023 6.9H80.2523V12H79.2023V8.6L79.2123 8.5H79.1123L76.8023 12H75.6523ZM82.0531 12V6.9H83.5531L84.9031 9.95H85.1031L86.4531 6.9H87.9531V12H86.9031V8.4L86.9131 8.3H86.8631L85.6031 11.1H84.4031L83.1431 8.3H83.0931L83.1031 8.4V12H82.0531Z" fill="currentColor" />
</svg>

<svg xmlns="http://www.w3.org/2000/svg" width="90" height="15" fill="none" viewBox="0 0 90 15">
  <path fill="#7A7ED0" d="M0 4.2857C0 1.9187 1.9188 0 4.2857 0h6.4286C13.0812 0 15 1.9188 15 4.2857v6.4286C15 13.0812 13.0812 15 10.7143 15H4.2857C1.9187 15 0 13.0812 0 10.7143V4.2857Z"/>
  <path fill="#fff" d="M3.4766 6.2199c0-.5753.4685-1.0417 1.0465-1.0417s1.0465.4664 1.0465 1.0417v5.2083c-1.156 0-2.093-.9327-2.093-2.0833v-3.125ZM9.407 8.5714c0-.5917.4685-1.0714 1.0465-1.0714S11.5 7.9797 11.5 8.5714H9.407Z"/>
  <path fill="#fff" d="M9.407 11.4284c1.1559 0 2.093-.9327 2.093-2.0833v-.7738H9.407v2.8571Zm-2.9617-6.81c0-.5786.4686-1.0476 1.0465-1.0476.578 0 1.0465.469 1.0465 1.0476v6.8095h-2.093V4.6184Z"/>
  <path fill="currentColor" d="M21.1 6.1V5h5.75v1.1h-2.3V12H23.4V6.1h-2.3Zm7.0969 5.24c-.5-.5133-.75-1.1433-.75-1.89 0-.7467.25-1.3733.75-1.88.5066-.5133 1.1233-.77 1.85-.77.7266 0 1.34.2567 1.84.77.5066.5067.76 1.1333.76 1.88v.35h-4.15c.08.42.2633.75.55.99.2866.24.62.36 1 .36.4666 0 .84-.1167 1.12-.35.1266-.0933.2366-.21.33-.35h1.1c-.14.3267-.3167.6033-.53.83-.5467.5467-1.22.82-2.02.82-.7267 0-1.3434-.2533-1.85-.76Zm.35-2.39h3c-.06-.3333-.22-.6167-.48-.85-.2534-.2333-.5934-.35-1.02-.35-.36 0-.68.11-.96.33-.28.2133-.46.5033-.54.87ZM33.5977 12l1.4-5.1h2.25l1.4 5.1h-1.1l-1.1-4.15h-.65l-1.1 4.15h-1.1Zm6.7464-.66c-.5-.5133-.75-1.1433-.75-1.89 0-.7467.25-1.3733.75-1.88.5067-.5133 1.1234-.77 1.85-.77.7267 0 1.34.2567 1.84.77.5067.5067.76 1.1333.76 1.88v.35h-4.15c.08.42.2634.75.55.99.2867.24.62.36 1 .36.4667 0 .84-.1167 1.12-.35.1267-.0933.2367-.21.33-.35h1.1c-.14.3267-.3166.6033-.53.83-.5466.5467-1.22.82-2.02.82-.7266 0-1.3433-.2533-1.85-.76Zm.35-2.39h3c-.06-.3333-.22-.6167-.48-.85-.2533-.2333-.5933-.35-1.02-.35-.36 0-.68.11-.96.33-.28.2133-.46.5033-.54.87ZM46.2949 12V6.9h1.05v2h.75l1.55-2h1.2l-1.85 2.35 2 2.75h-1.3l-1.55-2.15h-.8V12h-1.05Zm6.1674-.66c-.5066-.5133-.76-1.1433-.76-1.89 0-.7467.2534-1.3733.76-1.88.5134-.5133 1.1434-.77 1.89-.77.7467 0 1.3734.2567 1.88.77.5134.5067.77 1.1333.77 1.88 0 .7467-.2566 1.3767-.77 1.89-.5066.5067-1.1333.76-1.88.76-.7466 0-1.3766-.2533-1.89-.76Zm.77-3.12c-.2866.3067-.43.7167-.43 1.23s.1434.9267.43 1.24c.2867.3067.66.46 1.12.46.46 0 .8334-.1533 1.12-.46.2867-.3133.43-.7267.43-1.24s-.1433-.9233-.43-1.23c-.2866-.3133-.66-.47-1.12-.47-.46 0-.8333.1567-1.12.47ZM58.5008 12V6.9h1.5l1.35 3.05h.2l1.35-3.05h1.5V12h-1.05V8.4l.01-.1h-.05l-1.26 2.8h-1.2l-1.26-2.8h-.05l.01.1V12h-1.05Zm10.1043-5.9V5h5.75v1.1h-2.3V12h-1.15V6.1h-2.3Zm7.0472 5.9V6.9h1.05v3.4l-.01.1h.1l2.31-3.5h1.15V12h-1.05V8.6l.01-.1h-.1l-2.31 3.5h-1.15Zm6.4008 0V6.9h1.5l1.35 3.05h.2l1.35-3.05h1.5V12h-1.05V8.4l.01-.1h-.05l-1.26 2.8h-1.2l-1.26-2.8h-.05l.01.1V12h-1.05Z"/>
</svg>
